X: 21848
T: Kirree Fo Niaghtey
R: waltz
M: 3/4
K: Bminor
B>c|d2 F2 E2|F2 A2 B>A|F2 f2 e2|f4 f>g|
a2 g2 a2|f>e c2 A>c|B>A F>E F>A|B4 B>c|
d>e f2 d>f|e>c A2 B>c|d>c d>e f>g|a4 B>c|
d>e f2 d>f|e>c A2 d>c|B>A F>E F>A|B4||

